include/LD/assets/icons/utility/knowledge_base.svg

<?xml version="1.0"?><svg xmlns="http://www.w3.org/2000/svg" width="52" height="52" viewBox="0 0 52 52"><g fill="#fff"><path d="m9.5 35h13c0.8 0 1.5-0.7 1.5-1.5v-23.5c0-1.7-1.8-3-3.2-3h-11.3c-0.8 0-1.5 0.7-1.5 1.5v25c0 0.8 0.7 1.5 1.5 1.5z m39.7-23.4c-0.6-0.2-1.2 0.3-1.2 1v24.9c0 0.8-0.7 1.5-1.5 1.5h-41c-0.8 0-1.5-0.7-1.5-1.5v-24.8c0-0.7-0.8-1.2-1.4-0.9-1.5 0.7-2.6 2.3-2.6 4.2v23c0 2.2 1.8 4 4 4h16.5c0.8 0 1.5 0.7 1.5 1.5s0.7 1.5 1.5 1.5h5c0.8 0 1.5-0.7 1.5-1.5s0.7-1.5 1.5-1.5h16.5c2.2 0 4-1.8 4-4v-23c0-2.1-0.7-3.9-2.8-4.4z m-19.7 23.4h13c0.8 0 1.5-0.7 1.5-1.5v-25c0-0.8-0.7-1.5-1.5-1.5h-11.3c-1.5 0-3.2 1.3-3.2 3v23.5c0 0.8 0.7 1.5 1.5 1.5z"></path></g></svg>

<svg xmlns="http://www.w3.org/2000/svg" x="0px" y="0px"
	 width="52px" height="52px" viewBox="0 0 52 52" enable-background="new 0 0 52 52" xml:space="preserve">
<g>
	<path fill="#FFFFFF" d="M9.5,35h13c0.8,0,1.5-0.7,1.5-1.5V10c0-1.7-1.8-3-3.2-3H9.5C8.7,7,8,7.7,8,8.5V32v1.5C8,34.3,8.7,35,9.5,35
		z"/>
	<path fill="#FFFFFF" d="M49.2,11.6c-0.6-0.2-1.2,0.3-1.2,1v24.9c0,0.8-0.7,1.5-1.5,1.5h-41C4.7,39,4,38.3,4,37.5V12.7
		c0-0.7-0.8-1.2-1.4-0.9C1.1,12.5,0,14.1,0,16v23c0,2.2,1.8,4,4,4h16.5c0.8,0,1.5,0.7,1.5,1.5l0,0c0,0.8,0.7,1.5,1.5,1.5h5
		c0.8,0,1.5-0.7,1.5-1.5l0,0c0-0.8,0.7-1.5,1.5-1.5H48c2.2,0,4-1.8,4-4V16C52,13.9,51.3,12.1,49.2,11.6z"/>
	<path fill="#FFFFFF" d="M29.5,35h13c0.8,0,1.5-0.7,1.5-1.5V32V8.5C44,7.7,43.3,7,42.5,7H31.2C29.7,7,28,8.3,28,10v23.5
		C28,34.3,28.7,35,29.5,35z"/>
</g>
</svg>
